icons/arrow-box-out-bottom-left.svg

<svg xmlns="http://www.w3.org/2000/svg" width="24" height="24" viewBox="0 0 24 24">
  <path d="M11.3871006,11.2097046 C11.7793918,10.9046797 12.3466228,10.9324093 12.7071068,11.2928932 C13.0976311,11.6834175 13.0976311,12.3165825 12.7071068,12.7071068 L12.7071068,12.7071068 L5.414,20 L9,20 L9.11662113,20.0067277 C9.61395981,20.0644928 10,20.4871642 10,21 C10,21.5522847 9.55228475,22 9,22 L9,22 L3,22 L2.966,21.998 L2.94096861,21.9982669 L2.94096861,21.9982669 L2.919,21.995 L2.88337887,21.9932723 C2.8708523,21.9918173 2.85839634,21.9901309 2.84601538,21.9882174 C2.83886575,21.9870384 2.83121072,21.9857649 2.82356849,21.9844021 L2.80118228,21.9802356 C2.77683175,21.9753235 2.75280168,21.9695267 2.72912705,21.9628803 C2.71523112,21.9589028 2.70150571,21.9547331 2.68785748,21.9502619 C2.66820232,21.9438775 2.6484208,21.9366843 2.62894148,21.928896 C2.61120435,21.9218036 2.5939015,21.914321 2.57677845,21.9063266 C2.5561086,21.8966234 2.53570605,21.8862061 2.51572305,21.8751242 C2.50360556,21.8685012 2.49138689,21.8613931 2.47929125,21.8540045 C2.45372505,21.8382813 2.42886931,21.8215099 2.4048407,21.8036865 C2.36567442,21.774687 2.32828727,21.7425008 2.29289322,21.7071068 L2.38519363,21.7887351 C2.32033919,21.7381101 2.2618899,21.6796608 2.21126487,21.6148064 C2.20622849,21.6084584 2.20123565,21.6019058 2.19633458,21.5953066 C2.17849009,21.5711307 2.1617187,21.546275 2.14606743,21.5206602 C2.13860692,21.5086131 2.13149883,21.4963944 2.12467117,21.4840621 C2.11379392,21.4642939 2.10337664,21.4438914 2.09365378,21.4230991 C2.08567905,21.4060985 2.07819642,21.3887956 2.07122549,21.371336 C2.06331574,21.3515792 2.05612249,21.3317977 2.04954668,21.3117364 C2.04472872,21.2968513 2.04009773,21.2814633 2.03584514,21.265993 C2.02983363,21.2444365 2.0246398,21.2227461 2.02016515,21.2007941 C2.01670217,21.1833753 2.01362808,21.165949 2.0110178,21.1484669 C2.00376119,21.1003621 2,21.0506203 2,21 L2.00396641,21.0892501 C2.00189498,21.0659949 2.00063489,21.042681 2.00018615,21.0193545 L2,21 L2,15 L2.00672773,14.8833789 C2.06449284,14.3860402 2.48716416,14 3,14 C3.55228475,14 4,14.4477153 4,15 L4,15 L4,18.584 L11.2928932,11.2928932 Z M18,2 L18.1762728,2.00509269 C19.75108,2.09633912 21,3.40231912 21,5 L21,5 L21,15 L20.9949073,15.1762728 C20.9036609,16.75108 19.5976809,18 18,18 L18,18 L13,18 L12.8833789,17.9932723 C12.3860402,17.9355072 12,17.5128358 12,17 C12,16.4477153 12.4477153,16 13,16 L13,16 L18,16 L18.1166211,15.9932723 C18.6139598,15.9355072 19,15.5128358 19,15 L19,15 L19,5 L18.9932723,4.88337887 C18.9355072,4.38604019 18.5128358,4 18,4 L18,4 L8,4 L7.88337887,4.00672773 C7.38604019,4.06449284 7,4.48716416 7,5 L7,5 L7,12.3333333 L6.99327227,12.4499545 C6.93550716,12.9472931 6.51283584,13.3333333 6,13.3333333 C5.44771525,13.3333333 5,12.8856181 5,12.3333333 L5,12.3333333 L5,5 L5.00509269,4.82372721 C5.09633912,3.24891996 6.40231912,2 8,2 L8,2 L18,2 Z"/>
</svg>

<svg xmlns="http://www.w3.org/2000/svg" viewBox="0 0 24 24">
  <path d="M11.39 11.21a1 1 0 0 1 1.32 1.5L5.4 20h3.71A1 1 0 0 1 9 22H2.88a1 1 0 0 1-.06-.02H2.8a1 1 0 0 1-.5-.27l.09.08A1 1 0 0 1 2 21v.09a1 1 0 0 1 0-.07v-6.14A1 1 0 0 1 4 15v3.58l7.3-7.29zM18 2h.18A3 3 0 0 1 21 5v10.18A3 3 0 0 1 18 18h-5.12a1 1 0 0 1 .12-2h5.12a1 1 0 0 0 .88-1V4.88A1 1 0 0 0 18 4H7.88A1 1 0 0 0 7 5v7.45a1 1 0 0 1-2-.12V4.82A3 3 0 0 1 8 2h10z"/>
</svg>
